X:182
T:Dumfries House
C:Joe Buchanan's Scottish Tome - Page 271.2
I:271 2
C:Joseph Riddell
Z:Carl Allison
U:U=!tenuto!
R:Jig
L:1/8
M:6/8
K:G
D | "G"G3 (G2 Ug) | dBG GAB | "C"cde "G"dcB | "A7"AFD "D7"DEF | 
"G"G3 (G2 Ug) | dBG "Em"GAB | "Am"cEA "D7"FEF | "G"G3 G2 :| 
B/c/ | "G"dBd dBd | "C"gag "D"(Pf2 e)| "G"dBd dcB | "A7"AFD "D"D2 B/c/ | 
"G"dBd dBd | "C"gag "D"(Pf2 e) | "G"dcB "D"AGF | "G"G3 G2 B/c/ | 
"G"dBd dBd | "C"gag "D"(f2 e)| "G"dBd dcB | "A7"AFD "D"D2 B/c/ |
"G"dBd dBd | "C"gdg "D"fed | "G"dcB "D"cgf | "G"gdB G2|]
%
W:Errata: Changed lead-in note 1/16th note.

